src/assets/w5.svg

<svg height="40" viewBox="0 0 80 80" width="40" xmlns="http://www.w3.org/2000/svg" xmlns:xlink="http://www.w3.org/1999/xlink"><mask id="a" fill="#fff"><path d="m0 7.76v-7.435h49.765v7.435z" fill="#fff" fill-rule="evenodd"/></mask><g fill="#27d79d" fill-rule="evenodd"><path d="m72.565 3.734a3.718 3.718 0 1 1 7.436 0 3.718 3.718 0 0 1 -7.436 0m0 72.548a3.718 3.718 0 1 1 7.436 0 3.718 3.718 0 0 1 -7.436 0m3.718-32.522h-18.146a3.717 3.717 0 1 1 0-7.435h18.146a3.717 3.717 0 0 1 0 7.435m-12.108-36.306h-18.145a3.718 3.718 0 1 1 0-7.436h18.146a3.719 3.719 0 0 1 0 7.436"/><path d="m46.047 7.76h-42.33a3.718 3.718 0 1 1 0-7.435h42.33a3.718 3.718 0 1 1 0 7.435" mask="url(#a)" transform="translate(0 36)"/><path d="m58.145 25.581h-36.292a3.718 3.718 0 1 1 0-7.436h36.292a3.718 3.718 0 1 1 0 7.436m5.767 54.419h-17.864a3.717 3.717 0 1 1 0-7.435h17.864a3.717 3.717 0 1 1 0 7.435m-5.767-18.127h-36.287a3.719 3.719 0 0 1 0-7.436h36.287a3.718 3.718 0 1 1 0 7.436m18.138.011h-6.043a3.717 3.717 0 1 1 0-7.435h6.043a3.717 3.717 0 0 1 0 7.435m0-36.32h-6.043a3.717 3.717 0 1 1 0-7.435h6.043a3.717 3.717 0 0 1 0 7.435"/></g></svg>

<svg xmlns="http://www.w3.org/2000/svg" xmlns:xlink="http://www.w3.org/1999/xlink" width="40" height="40" viewBox="0 0 80 80">
    <defs>
        <path id="a" d="M0 7.76V.325h49.765V7.76H0z"/>
    </defs>
    <g fill="none" fill-rule="evenodd">
        <path fill="#27D79D" d="M72.565 3.734a3.718 3.718 0 1 1 7.436 0 3.718 3.718 0 0 1-7.436 0M72.565 76.282a3.718 3.718 0 1 1 7.436 0 3.718 3.718 0 0 1-7.436 0M76.283 43.76H58.137a3.717 3.717 0 1 1 0-7.435h18.146a3.717 3.717 0 0 1 0 7.435M64.175 7.454H46.03a3.718 3.718 0 1 1 0-7.436h18.146a3.719 3.719 0 0 1 0 7.436"/>
        <g transform="translate(0 36)">
            <mask id="b" fill="#fff">
                <use xlink:href="#a"/>
            </mask>
            <path fill="#27D79D" d="M46.047 7.76H3.717a3.718 3.718 0 1 1 0-7.435h42.33a3.718 3.718 0 1 1 0 7.435" mask="url(#b)"/>
        </g>
        <path fill="#27D79D" d="M58.145 25.581H21.853a3.718 3.718 0 1 1 0-7.436h36.292a3.718 3.718 0 1 1 0 7.436M63.912 80H46.048a3.717 3.717 0 1 1 0-7.435h17.864a3.717 3.717 0 1 1 0 7.435M58.145 61.873H21.858a3.719 3.719 0 0 1 0-7.436h36.287a3.718 3.718 0 1 1 0 7.436M76.283 61.884H70.24a3.717 3.717 0 1 1 0-7.435h6.043a3.717 3.717 0 0 1 0 7.435M76.283 25.564H70.24a3.717 3.717 0 1 1 0-7.435h6.043a3.717 3.717 0 0 1 0 7.435"/>
    </g>
</svg>
